X: 14288
T: Gahan's
R: hornpipe
M: 4/4
K: Gmajor
|:Bc|dgfa gedB|GFGA BGDC|B,DGF EGcB|Ad^ce dB (3=cBA|
Ggfa gedB|GFGA BGDC|B,afe d2 (3cBA|G2FA G2:|
|:FG|ABAG FAde|fgfd Adfa|gfeg fedf|(3efe (3d^cB A2 FG|
ABAG FAde|fgfd Adfa|gfeg fedf|ed^ce d2:|

